;FLAVOR:Marlin
;TIME:22272
;Filament used: 15.8904m
;Layer height: 0.16
;MINX:68.065
;MINY:74.414
;MINZ:0.12
;MAXX:151.935
;MAXY:145.586
;MAXZ:63.48
;Generated with Cura_SteamEngine 4.2.1
M140 S60
M105
M190 S60
M104 S225
M105
M109 S225
M82 ;absolute extrusion mode
M201 X500.00 Y500.00 Z100.00 E5000.00 ;Setup machine max acceleration
M203 X500.00 Y500.00 Z10.00 E50.00 ;Setup machine max feedrate
M204 P500.00 R1000.00 T500.00 ;Setup Print/Retract/Travel acceleration
M205 X8.00 Y8.00 Z0.40 E5.00 ;Setup Jerk
M220 S100 ;Reset Feedrate
M221 S100 ;Reset Flowrate

G28 ;Home

G92 E0 ;Reset Extruder
G1 Z2.0 F3000 ;Move Z Axis up
G1 X10.1 Y20 Z0.28 F5000.0 ;Move to start position
G1 X10.1 Y200.0 Z0.28 F1500.0 E15 ;Draw the first line
G1 X10.4 Y200.0 Z0.28 F5000.0 ;Move to side a little
G1 X10.4 Y20 Z0.28 F1500.0 E30 ;Draw the second line
G92 E0 ;Reset Extruder
G1 Z2.0 F3000 ;Move Z Axis up

M141 S28
G92 E0
G92 E0
G1 F2700 E-5
;LAYER_COUNT:397
;LAYER:0
M107
G0 F6000 X72.005 Y78.285 Z0.12
;TYPE:SKIRT
G1 F2700 E0
G1 F1200 X72.765 Y77.587 E0.02492
G1 X73.576 Y76.951 E0.0498
G1 X74.434 Y76.379 E0.0747
G1 X75.334 Y75.875 E0.09961
G1 X76.271 Y75.443 E0.12453
G1 X77.238 Y75.085 E0.14942
G1 X78.23 Y74.802 E0.17433
G1 X79.24 Y74.597 E0.19922
G1 X80.264 Y74.471 E0.22413
G1 X80.962 Y74.431 E0.24101
G1 X81.285 Y74.421 E0.24882
G1 X81.697 Y74.415 E0.25877
G1 X136.355 Y74.414 E1.57859
G1 X136.363 Y74.414 E1.57878
G1 X137.976 Y74.415 E1.61773
G1 X138.153 Y74.416 E1.622
G1 X138.801 Y74.425 E1.63765
G1 X139.831 Y74.48 E1.66256
G1 X140.853 Y74.614 E1.68745
G1 X141.862 Y74.826 E1.71234
G1 X142.852 Y75.117 E1.73726
G1 X143.816 Y75.483 E1.76216
G1 X144.749 Y75.922 E1.78706
G1 X145.645 Y76.433 E1.81196
G1 X146.499 Y77.012 E1.83688
G1 X147.305 Y77.655 E1.86178
G1 X148.059 Y78.358 E1.88667
G1 X148.756 Y79.118 E1.91157
G1 X149.393 Y79.93 E1.93649
G1 X149.964 Y80.788 E1.96138
G1 X150.468 Y81.688 E1.98628
G1 X150.9 Y82.625 E2.0112
G1 X151.258 Y83.592 E2.0361
G1 X151.54 Y84.584 E2.061
G1 X151.744 Y85.595 E2.0859
G1 X151.895 Y86.969 E2.11928
G1 X151.914 Y87.303 E2.12736
G1 X151.935 Y88.058 E2.1456
G1 X151.935 Y131.549 E3.19577
G1 X151.934 Y131.714 E3.19975
G1 X151.925 Y132.441 E3.21731
G1 X151.872 Y133.471 E3.24221
G1 X151.74 Y134.493 E3.2671
G1 X151.529 Y135.503 E3.29201
G1 X151.24 Y136.493 E3.31691
G1 X150.875 Y137.458 E3.34183
G1 X150.437 Y138.391 E3.36671
G1 X149.928 Y139.288 E3.39162
G1 X149.35 Y140.142 E3.41652
G1 X148.708 Y140.95 E3.44144
G1 X148.006 Y141.705 E3.46633
G1 X147.247 Y142.403 E3.49123
G1 X146.437 Y143.041 E3.51613
G1 X145.579 Y143.614 E3.54104
G1 X144.68 Y144.118 E3.56593
G1 X143.744 Y144.552 E3.59084
G1 X142.777 Y144.912 E3.61576
G1 X141.786 Y145.195 E3.64064
G1 X140.775 Y145.401 E3.66556
G1 X139.752 Y145.528 E3.69045
G1 X139.02 Y145.57 E3.70815
G1 X138.716 Y145.579 E3.7155
G1 X138.322 Y145.585 E3.72501
G1 X82.072 Y145.586 E5.08327
G1 X81.881 Y145.585 E5.08789
G1 X81.183 Y145.575 E5.10474
G1 X80.154 Y145.52 E5.12963
G1 X79.131 Y145.386 E5.15454
G1 X78.122 Y145.172 E5.17944
G1 X77.133 Y144.882 E5.20433
G1 X76.169 Y144.515 E5.22924
G1 X75.236 Y144.075 E5.25415
G1 X74.34 Y143.564 E5.27905
G1 X73.487 Y142.985 E5.30395
G1 X72.681 Y142.342 E5.32885
G1 X71.927 Y141.638 E5.35375
G1 X71.23 Y140.878 E5.37866
G1 X70.594 Y140.066 E5.40356
G1 X70.023 Y139.207 E5.42847
G1 X69.52 Y138.307 E5.45336
G1 X69.088 Y137.37 E5.47828
G1 X68.73 Y136.403 E5.50318
G1 X68.449 Y135.411 E5.52807
G1 X68.245 Y134.4 E5.55298
G1 X68.12 Y133.376 E5.57789
G1 X68.079 Y132.657 E5.59528
G1 X68.07 Y132.343 E5.60286
G1 X68.065 Y131.962 E5.61206
G1 X68.065 Y88.388 E6.66424
G1 X68.066 Y88.207 E6.66861
G1 X68.075 Y87.544 E6.68462
G1 X68.129 Y86.515 E6.7095
G1 X68.263 Y85.492 E6.73441
G1 X68.475 Y84.483 E6.75931
G1 X68.765 Y83.493 E6.78422
G1 X69.131 Y82.529 E6.80912
G1 X69.57 Y81.596 E6.83402
G1 X70.081 Y80.7 E6.85892
G1 X70.659 Y79.846 E6.88383
G1 X71.302 Y79.039 E6.90874
G1 X72.005 Y78.285 E6.93363
G0 F6000 X72.436 Y78.479
G1 F1200 X73.192 Y77.803 E6.95812
G1 X74 Y77.189 E6.98263
G1 X74.853 Y76.641 E7.00711
G1 X75.746 Y76.162 E7.03158
G1 X76.675 Y75.754 E7.05608
G1 X77.633 Y75.421 E7.08057
G1 X78.614 Y75.165 E7.10505
G1 X79.612 Y74.986 E7.12953
G1 X80.976 Y74.871 E7.16259
G1 X81.299 Y74.861 E7.17039
G1 X81.697 Y74.855 E7.18
G1 X136.355 Y74.854 E8.49982
G1 X136.363 Y74.854 E8.50001
G1 X137.976 Y74.855 E8.53896
G1 X138.147 Y74.856 E8.54309
G1 X138.795 Y74.865 E8.55874
G1 X139.807 Y74.919 E8.58321
G1 X140.813 Y75.053 E8.60772
G1 X141.804 Y75.265 E8.63219
G1 X142.776 Y75.555 E8.65668
G1 X143.722 Y75.921 E8.68117
G1 X144.636 Y76.36 E8.70566
G1 X145.513 Y76.87 E8.73016
G1 X146.346 Y77.447 E8.75462
G1 X147.132 Y78.088 E8.77911
G1 X147.865 Y78.789 E8.80361
G1 X148.54 Y79.546 E8.8281
G1 X149.154 Y80.353 E8.85258
G1 X149.702 Y81.206 E8.87706
G1 X150.181 Y82.1 E8.90155
G1 X150.588 Y83.029 E8.92604
G1 X150.921 Y83.987 E8.95054
G1 X151.177 Y84.968 E8.97502
G1 X151.355 Y85.966 E8.9995
G1 X151.455 Y86.994 E9.02444
G1 X151.474 Y87.328 E9.03251
G1 X151.495 Y88.058 E9.05015
G1 X151.495 Y131.549 E10.10032
G1 X151.494 Y131.708 E10.10416
G1 X151.485 Y132.435 E10.12171
G1 X151.432 Y133.448 E10.14621
G1 X151.3 Y134.453 E10.17068
G1 X151.089 Y135.445 E10.19517
G1 X150.801 Y136.417 E10.21965
G1 X150.437 Y137.364 E10.24415
G1 X149.999 Y138.279 E10.26865
G1 X149.491 Y139.156 E10.29312
G1 X148.915 Y139.991 E10.31761
G1 X148.275 Y140.778 E10.34211
G1 X147.575 Y141.512 E10.3666
G1 X146.819 Y142.188 E10.39109
G1 X146.013 Y142.803 E10.41557
G1 X145.161 Y143.352 E10.44004
G1 X144.267 Y143.833 E10.46456
G1 X143.339 Y144.241 E10.48904
G1 X142.382 Y144.575 E10.51351
G1 X141.401 Y144.833 E10.53801
G1 X140.403 Y145.013 E10.56249
G1 X139.007 Y145.13 E10.59632
G1 X138.703 Y145.139 E10.60366
G1 X138.322 Y145.145 E10.61286
G1 X82.072 Y145.146 E11.97113
G1 X81.888 Y145.145 E11.97557
G1 X81.19 Y145.135 E11.99242
G1 X80.177 Y145.08 E12.01692
G1 X79.172 Y144.946 E12.0414
G1 X78.18 Y144.733 E12.0659
G1 X77.209 Y144.443 E12.09037
G1 X76.263 Y144.077 E12.11487
G1 X75.349 Y143.637 E12.13936
G1 X74.473 Y143.127 E12.16384
G1 X73.639 Y142.55 E12.18833
G1 X72.854 Y141.908 E12.21281
G1 X72.121 Y141.207 E12.2373
G1 X71.446 Y140.45 E12.26179
G1 X70.833 Y139.642 E12.28628
G1 X70.285 Y138.789 E12.31077
G1 X69.807 Y137.895 E12.33525
G1 X69.4 Y136.966 E12.35974
G1 X69.067 Y136.008 E12.38423
G1 X68.812 Y135.027 E12.4087
G1 X68.634 Y134.028 E12.4332
G1 X68.519 Y132.644 E12.46674
G1 X68.51 Y132.33 E12.47432
G1 X68.505 Y131.962 E12.48321
G1 X68.505 Y88.388 E13.53539
G1 X68.506 Y88.213 E13.53961
G1 X68.515 Y87.55 E13.55562
G1 X68.569 Y86.538 E13.58009
G1 X68.702 Y85.532 E13.6046
G1 X68.914 Y84.541 E13.62907
G1 X69.204 Y83.569 E13.65356
G1 X69.569 Y82.623 E13.67805
G1 X70.008 Y81.709 E13.70253
G1 X70.518 Y80.832 E13.72703
G1 X71.094 Y79.998 E13.7515
G1 X71.735 Y79.212 E13.77599
G1 X72.436 Y78.479 E13.80048
G0 F6000 X72.866 Y78.676
G1 F1200 X73.619 Y78.023 E13.82455
G1 X74.422 Y77.433 E13.84861
G1 X75.27 Y76.909 E13.87268
G1 X76.156 Y76.454 E13.89673
G1 X77.077 Y76.072 E13.92081
G1 X78.025 Y75.765 E13.94487
G1 X78.995 Y75.535 E13.96894
G1 X79.98 Y75.384 E13.993
G1 X80.99 Y75.311 E14.01746
G1 X81.313 Y75.301 E14.02526
G1 X81.697 Y75.295 E14.03453
G1 X136.355 Y75.294 E15.35435
G1 X136.363 Y75.294 E15.35454
G1 X137.976 Y75.295 E15.39349
G1 X138.14 Y75.296 E15.39745
G1 X138.788 Y75.305 E15.4131
G1 X139.784 Y75.359 E15.43719
G1 X140.771 Y75.492 E15.46124
G1 X141.745 Y75.705 E15.48531
G1 X142.699 Y75.994 E15.50938
G1 X143.626 Y76.359 E15.53344
G1 X144.521 Y76.798 E15.55751
G1 X145.378 Y77.306 E15.58157
G1 X146.191 Y77.882 E15.60562
G1 X146.956 Y78.521 E15.62969
G1 X147.667 Y79.219 E15.65375
G1 X148.32 Y79.972 E15.67782
G1 X148.91 Y80.775 E15.70188
G1 X149.434 Y81.623 E15.72595
G1 X149.889 Y82.51 E15.75002
G1 X150.27 Y83.431 E15.77409
G1 X150.577 Y84.379 E15.79815
G1 X150.807 Y85.349 E15.82222
G1 X150.958 Y86.334 E15.84629
G1 X151.016 Y87.019 E15.86289
G1 X151.035 Y87.353 E15.87096
G1 X151.055 Y88.058 E15.88799
G1 X151.055 Y131.549 E16.93817
G1 X151.054 Y131.703 E16.94188
G1 X151.045 Y132.43 E16.95944
G1 X150.993 Y133.425 E16.9835
G1 X150.861 Y134.413 E17.00757
G1 X150.65 Y135.387 E17.03163
G1 X150.362 Y136.341 E17.0557
G1 X149.998 Y137.269 E17.07977
G1 X149.561 Y138.164 E17.10382
G1 X149.054 Y139.022 E17.12788
G1 X148.48 Y139.837 E17.15195
G1 X147.842 Y140.602 E17.176
G1 X147.144 Y141.314 E17.20008
G1 X146.392 Y141.968 E17.22415
G1 X145.59 Y142.56 E17.24822
G1 X144.743 Y143.085 E17.27228
G1 X143.857 Y143.541 E17.29634
G1 X142.937 Y143.924 E17.3204
G1 X141.989 Y144.232 E17.34447
G1 X141.02 Y144.463 E17.36853
G1 X140.035 Y144.616 E17.3926
G1 X138.994 Y144.691 E17.4178
G1 X138.69 Y144.7 E17.42514
G1 X138.322 Y144.705 E17.43403
G1 X82.072 Y144.706 E18.79229
G1 X81.894 Y144.705 E18.79659
G1 X81.196 Y144.695 E18.81344
G1 X80.201 Y144.64 E18.83751
G1 X79.213 Y144.507 E18.86158
G1 X78.24 Y144.294 E18.88563
G1 X77.286 Y144.004 E18.90971
G1 X76.359 Y143.639 E18.93376
G1 X75.464 Y143.2 E18.95784
G1 X74.607 Y142.691 E18.9819
G1 X73.794 Y142.115 E19.00596
G1 X73.03 Y141.475 E19.03003
G1 X72.319 Y140.777 E19.05409
G1 X71.667 Y140.023 E19.07816
G1 X71.077 Y139.22 E19.10222
G1 X70.553 Y138.372 E19.12629
G1 X70.099 Y137.485 E19.15035
G1 X69.718 Y136.564 E19.17442
G1 X69.412 Y135.616 E19.19847
G1 X69.182 Y134.646 E19.22254
G1 X69.031 Y133.661 E19.24661
G1 X68.959 Y132.632 E19.27151
G1 X68.95 Y132.318 E19.2791
G1 X68.945 Y131.962 E19.2877
G1 X68.945 Y88.388 E20.33987
G1 X68.946 Y88.219 E20.34395
G1 X68.955 Y87.556 E20.35996
G1 X69.009 Y86.561 E20.38402
G1 X69.142 Y85.574 E20.40807
G1 X69.354 Y84.6 E20.43214
G1 X69.643 Y83.646 E20.45621
G1 X70.008 Y82.719 E20.48027
G1 X70.446 Y81.823 E20.50435
G1 X70.954 Y80.966 E20.52841
G1 X71.529 Y80.153 E20.55245
G1 X72.168 Y79.388 E20.57652
G1 X72.866 Y78.676 E20.6006
G0 F6000 X72.601 Y79.567
G1 F1200 X73.296 Y78.878 E20.62423
G1 X74.045 Y78.248 E20.64786
G1 X74.843 Y77.682 E20.67149
G1 X75.685 Y77.182 E20.69513
G1 X76.565 Y76.753 E20.71877
G1 X77.476 Y76.397 E20.74239
G1 X78.414 Y76.116 E20.76603
G1 X79.372 Y75.914 E20.78968
G1 X80.343 Y75.789 E20.81332
G1 X81.003 Y75.751 E20.82928
G1 X81.326 Y75.741 E20.83708
G1 X81.697 Y75.735 E20.84604
G1 X136.355 Y75.734 E22.16586
G1 X136.362 Y75.734 E22.16603
G1 X137.975 Y75.735 E22.20498
G1 X138.134 Y75.736 E22.20882
G1 X138.782 Y75.745 E22.22447
G1 X139.76 Y75.799 E22.24812
G1 X140.729 Y75.932 E22.27174
G1 X141.685 Y76.144 E22.29538
G1 X142.62 Y76.433 E22.31901
G1 X143.528 Y76.797 E22.34263
G1 X144.404 Y77.235 E22.36628
G1 X145.241 Y77.742 E22.38991
G1 X146.034 Y78.317 E22.41357
G1 X146.777 Y78.953 E22.43718
G1 X147.465 Y79.649 E22.46081
G1 X148.095 Y80.398 E22.48445
G1 X148.662 Y81.197 E22.5081
G1 X149.161 Y82.038 E22.53172
G1 X149.59 Y82.918 E22.55536
G1 X149.945 Y83.83 E22.57899
G1 X150.226 Y84.768 E22.60263
G1 X150.428 Y85.725 E22.62625
G1 X150.577 Y87.044 E22.6583
G1 X150.596 Y87.378 E22.66638
G1 X150.615 Y88.058 E22.68281
G1 X150.615 Y131.549 E23.73298
G1 X150.614 Y131.697 E23.73655
G1 X150.605 Y132.424 E23.75411
G1 X150.553 Y133.402 E23.77776
G1 X150.421 Y134.372 E23.80139
G1 X150.211 Y135.327 E23.82501
G1 X149.923 Y136.263 E23.84865
G1 X149.56 Y137.172 E23.87229
G1 X149.124 Y138.048 E23.89592
G1 X148.618 Y138.886 E23.91955
G1 X148.045 Y139.679 E23.94318
G1 X147.409 Y140.424 E23.96683
G1 X146.714 Y141.113 E23.99046
G1 X145.966 Y141.744 E24.01409
G1 X145.169 Y142.312 E24.03772
G1 X144.328 Y142.812 E24.06135
G1 X143.448 Y143.243 E24.08501
G1 X142.537 Y143.6 E24.10864
G1 X141.6 Y143.881 E24.13226
G1 X140.642 Y144.085 E24.15591
G1 X139.672 Y144.21 E24.17953
G1 X138.981 Y144.251 E24.19624
G1 X138.677 Y144.26 E24.20359
G1 X138.322 Y144.265 E24.21216
G1 X82.072 Y144.266 E25.57042
G1 X81.9 Y144.265 E25.57457
G1 X81.202 Y144.255 E25.59143
G1 X80.225 Y144.201 E25.61506
G1 X79.255 Y144.067 E25.6387
G1 X78.3 Y143.855 E25.66232
G1 X77.365 Y143.565 E25.68596
G1 X76.457 Y143.2 E25.70959
G1 X75.581 Y142.763 E25.73323
G1 X74.745 Y142.255 E25.75685
G1 X73.952 Y141.68 E25.7805
G1 X73.209 Y141.043 E25.80414
G1 X72.521 Y140.347 E25.82777
G1 X71.892 Y139.598 E25.85138
G1 X71.326 Y138.799 E25.87503
G1 X70.827 Y137.957 E25.89866
G1 X70.398 Y137.077 E25.9223
G1 X70.043 Y136.165 E25.94593
G1 X69.763 Y135.227 E25.96957
G1 X69.561 Y134.269 E25.99321
G1 X69.438 Y133.298 E26.01685
G1 X69.399 Y132.619 E26.03327
G1 X69.39 Y132.305 E26.04085
G1 X69.385 Y131.962 E26.04914
G1 X69.385 Y88.388 E27.10131
G1 X69.386 Y88.225 E27.10525
G1 X69.395 Y87.562 E27.12126
G1 X69.448 Y86.585 E27.14489
G1 X69.581 Y85.615 E27.16853
G1 X69.793 Y84.66 E27.19215
G1 X70.082 Y83.725 E27.21578
G1 X70.446 Y82.816 E27.23942
G1 X70.883 Y81.94 E27.26306
G1 X71.39 Y81.103 E27.28669
G1 X71.964 Y80.31 E27.31033
G1 X72.601 Y79.567 E27.33396
G0 F6000 X73.033 Y79.75
G1 F1200 X73.725 Y79.084 E27.35715
G1 X74.47 Y78.478 E27.38034
G1 X75.264 Y77.936 E27.40356
G1 X76.099 Y77.461 E27.42675
G1 X76.971 Y77.058 E27.44995
G1 X77.873 Y76.729 E27.47313
G1 X78.8 Y76.476 E27.49634
G1 X79.744 Y76.301 E27.51952
G1 X81.017 Y76.191 E27.55037
G1 X81.34 Y76.181 E27.55818
G1 X81.697 Y76.175 E27.5668
G1 X136.355 Y76.174 E28.88662
G1 X136.362 Y76.174 E28.88679
G1 X137.975 Y76.175 E28.92573
G1 X138.128 Y76.176 E28.92943
G1 X138.776 Y76.185 E28.94508
G1 X139.735 Y76.238 E28.96827
G1 X140.687 Y76.371 E28.99148
G1 X141.624 Y76.583 E29.01468
G1 X142.54 Y76.872 E29.03787
G1 X143.429 Y77.236 E29.06107
G1 X144.285 Y77.672 E29.08426
G1 X145.101 Y78.179 E29.10746
G1 X145.872 Y78.751 E29.13064
G1 X146.594 Y79.386 E29.15386
G1 X147.26 Y80.078 E29.17705
G1 X147.865 Y80.823 E29.20023
G1 X148.407 Y81.617 E29.22344
G1 X148.881 Y82.452 E29.24662
G1 X149.284 Y83.324 E29.26982
G1 X149.613 Y84.227 E29.29303
G1 X149.866 Y85.153 E29.31621
G1 X150.041 Y86.098 E29.33941
G1 X150.137 Y87.069 E29.36297
G1 X150.156 Y87.403 E29.37105
G1 X150.175 Y88.058 E29.38688
G1 X150.175 Y131.549 E30.43705
G1 X150.174 Y131.692 E30.4405
G1 X150.165 Y132.419 E30.45806
G1 X150.113 Y133.378 E30.48125
G1 X149.982 Y134.33 E30.50445
G1 X149.772 Y135.267 E30.52764
G1 X149.484 Y136.184 E30.55085
G1 X149.122 Y137.073 E30.57403
G1 X148.686 Y137.93 E30.59724
G1 X148.181 Y138.747 E30.62044
G1 X147.61 Y139.519 E30.64362
G1 X146.976 Y140.241 E30.66682
G1 X146.285 Y140.908 E30.69001
G1 X145.541 Y141.515 E30.7132
G1 X144.748 Y142.058 E30.73641
G1 X143.913 Y142.533 E30.7596
G1 X143.042 Y142.938 E30.7828
G1 X142.14 Y143.268 E30.80599
G1 X141.214 Y143.522 E30.82918
G1 X140.269 Y143.698 E30.85239
G1 X138.967 Y143.811 E30.88395
G1 X138.663 Y143.82 E30.89129
G1 X138.322 Y143.825 E30.89952
G1 X82.072 Y143.826 E32.25778
G1 X81.907 Y143.825 E32.26177
G1 X81.209 Y143.815 E32.27863
G1 X80.25 Y143.761 E32.30182
G1 X79.298 Y143.628 E32.32503
G1 X78.361 Y143.416 E32.34823
G1 X77.445 Y143.127 E32.37142
G1 X76.556 Y142.762 E32.39463
G1 X75.701 Y142.325 E32.41781
G1 X74.885 Y141.819 E32.441
G1 X74.114 Y141.246 E32.46419
G1 X73.393 Y140.611 E32.48739
G1 X72.727 Y139.918 E32.5106
G1 X72.121 Y139.173 E32.53379
G1 X71.58 Y138.379 E32.55699
G1 X71.106 Y137.543 E32.5802
G1 X70.704 Y136.671 E32.60338
G1 X70.375 Y135.768 E32.62659
G1 X70.123 Y134.842 E32.64976
G1 X69.948 Y133.897 E32.67297
G1 X69.839 Y132.607 E32.70423
G1 X69.83 Y132.293 E32.71181
G1 X69.825 Y131.962 E32.71981
G1 X69.825 Y88.388 E33.77198
G1 X69.826 Y88.231 E33.77577
G1 X69.835 Y87.568 E33.79178
G1 X69.888 Y86.609 E33.81498
G1 X70.021 Y85.658 E33.83816
G1 X70.232 Y84.721 E33.86136
G1 X70.52 Y83.804 E33.88457
G1 X70.884 Y82.915 E33.90776
G1 X71.32 Y82.059 E33.93096
G1 X71.827 Y81.243 E33.95416
G1 X72.399 Y80.471 E33.97736
G1 X73.033 Y79.75 E34.00054
G0 F6000 X73.465 Y79.937
G1 F1200 X74.154 Y79.294 E34.0233
G1 X74.895 Y78.712 E34.04605
G1 X75.682 Y78.195 E34.06879
G1 X76.511 Y77.747 E34.09154
G1 X77.375 Y77.371 E34.11429
G1 X78.267 Y77.069 E34.13703
G1 X79.182 Y76.844 E34.15978
G1 X80.113 Y76.697 E34.18254
G1 X81.031 Y76.63 E34.20477
G1 X81.354 Y76.62 E34.21257
G1 X81.697 Y76.615 E34.22086
G1 X136.355 Y76.614 E35.54068
G1 X136.362 Y76.614 E35.54084
G1 X137.975 Y76.615 E35.57979
G1 X138.122 Y76.616 E35.58334
G1 X138.77 Y76.625 E35.59899
